X: 39022
T: Swan And Dolphin
R: reel
M: 4/4
K: Amajor
|:ABce c2Bc|AF~F2 F2AF|E2~E2 EFAB|cBBA B4|
ABce c2Bc|AF~F2 F2AF|EAcA FAdc|BEGB A4:|
eA~A2 fgaf|eAcA Bcdf|eA~A2 fgaf|ecAc B2cd|
eA~A2 fgaf|eAcA BAFA|EAcA FAdc|BEGB ABcd|
eA~A2 fgaf|eAcA Bcdf|eA~A2 fgaf|ecAc B2AF|
EA~A2 GB~B2|Ac~c2 Bd~d2|cefg afec|BEGB A4||

